assets/images/script/s-6-e2.svg

<svg fill="none" height="154" viewBox="0 0 211 154" width="211" xmlns="http://www.w3.org/2000/svg"><path d="m9.31093 134.585c-16.47379.785 2.26777 8.34 8.45037 10.401 26.4498 8.816 56.1468 8.666 81.3983-3.9 16.7824-8.352 32.7874-29.583 11.2674-43.1913-15.9629-10.094-45.5312-1.8921-40.591 21.1623 5.9767 27.891 45.364 31.553 68.037 30.84 30.758-.967 61.547-11.958 67.892-45.43 6.538-34.4927-3.787-59.6705-6.356-93.9213-1.008-13.44131 4.166-7.9584 4.911 1.7335" stroke="#000" stroke-linecap="round" stroke-width="5"/></svg>

<svg width="211" height="154" viewBox="0 0 211 154" fill="none" xmlns="http://www.w3.org/2000/svg">
<path d="M9.31093 134.585C-7.16286 135.37 11.5787 142.925 17.7613 144.986C44.2111 153.802 73.9081 153.652 99.1596 141.086C115.942 132.734 131.947 111.503 110.427 97.8947C94.4641 87.8007 64.8958 96.0026 69.836 119.057C75.8127 146.948 115.2 150.61 137.873 149.897C168.631 148.93 199.42 137.939 205.765 104.467C212.303 69.9743 201.978 44.7965 199.409 10.5457C198.401 -2.89561 203.575 2.5873 204.32 12.2792" stroke="black" stroke-width="5" stroke-linecap="round"/>
</svg>
